dist/images/no-data.svg

<svg width="193" height="22" viewBox="0 0 193 22" fill="none" xmlns="http://www.w3.org/2000/svg">
<path d="M16.9 11.9C16.9 13.2867 16.6 14.52 16 15.6C15.4133 16.6667 14.56 17.5 13.44 18.1C12.3333 18.7 11.0267 19 9.52 19H4.18V4.86H9.52C11.04 4.86 12.3533 5.15333 13.46 5.74C14.5667 6.32667 15.4133 7.15333 16 8.22C16.6 9.28667 16.9 10.5133 16.9 11.9ZM9.22 15.94C10.5533 15.94 11.5867 15.5867 12.32 14.88C13.0667 14.1733 13.44 13.18 13.44 11.9C13.44 10.62 13.0667 9.62667 12.32 8.92C11.5867 8.21333 10.5533 7.86 9.22 7.86H7.6V15.94H9.22ZM28.608 16.42H23.308L22.428 19H18.828L24.008 4.96H27.948L33.128 19H29.488L28.608 16.42ZM27.728 13.82L25.968 8.62L24.188 13.82H27.728ZM45.6173 4.86V7.58H41.7773V19H38.3373V7.58H34.5373V4.86H45.6173ZM56.8189 16.42H51.5189L50.6389 19H47.0389L52.2189 4.96H56.1589L61.3389 19H57.6989L56.8189 16.42ZM55.9389 13.82L54.1789 8.62L52.3989 13.82H55.9389ZM81.2322 19H77.8122L72.0922 10.32V19H68.6722V4.86H72.0922L77.8122 13.62V4.86H81.2322V19ZM91.3141 4.64C92.6474 4.64 93.8541 4.95333 94.9341 5.58C96.0274 6.19333 96.8874 7.05333 97.5141 8.16C98.1407 9.25333 98.4541 10.4933 98.4541 11.88C98.4541 13.2667 98.1341 14.5133 97.4941 15.62C96.8674 16.7267 96.0074 17.5933 94.9141 18.22C93.8341 18.8333 92.6341 19.14 91.3141 19.14C89.9941 19.14 88.7874 18.8333 87.6941 18.22C86.6141 17.5933 85.7541 16.7267 85.1141 15.62C84.4874 14.5133 84.1741 13.2667 84.1741 11.88C84.1741 10.4933 84.4874 9.25333 85.1141 8.16C85.7541 7.05333 86.6141 6.19333 87.6941 5.58C88.7874 4.95333 89.9941 4.64 91.3141 4.64ZM91.3141 7.82C90.1941 7.82 89.3007 8.18667 88.6341 8.92C87.9807 9.64 87.6541 10.6267 87.6541 11.88C87.6541 13.12 87.9807 14.1067 88.6341 14.84C89.3007 15.5733 90.1941 15.94 91.3141 15.94C92.4207 15.94 93.3074 15.5733 93.9741 14.84C94.6407 14.1067 94.9741 13.12 94.9741 11.88C94.9741 10.64 94.6407 9.65333 93.9741 8.92C93.3207 8.18667 92.4341 7.82 91.3141 7.82ZM111.535 4.86V7.58H107.695V19H104.255V7.58H100.455V4.86H111.535ZM128.201 4.86V7.58H122.401V10.68H126.881V13.28H122.401V19H118.981V4.86H128.201ZM137.677 4.64C139.011 4.64 140.217 4.95333 141.297 5.58C142.391 6.19333 143.251 7.05333 143.877 8.16C144.504 9.25333 144.817 10.4933 144.817 11.88C144.817 13.2667 144.497 14.5133 143.857 15.62C143.231 16.7267 142.371 17.5933 141.277 18.22C140.197 18.8333 138.997 19.14 137.677 19.14C136.357 19.14 135.151 18.8333 134.057 18.22C132.977 17.5933 132.117 16.7267 131.477 15.62C130.851 14.5133 130.537 13.2667 130.537 11.88C130.537 10.4933 130.851 9.25333 131.477 8.16C132.117 7.05333 132.977 6.19333 134.057 5.58C135.151 4.95333 136.357 4.64 137.677 4.64ZM137.677 7.82C136.557 7.82 135.664 8.18667 134.997 8.92C134.344 9.64 134.017 10.6267 134.017 11.88C134.017 13.12 134.344 14.1067 134.997 14.84C135.664 15.5733 136.557 15.94 137.677 15.94C138.784 15.94 139.671 15.5733 140.337 14.84C141.004 14.1067 141.337 13.12 141.337 11.88C141.337 10.64 141.004 9.65333 140.337 8.92C139.684 8.18667 138.797 7.82 137.677 7.82ZM151.059 4.86V13.02C151.059 13.9533 151.265 14.6667 151.679 15.16C152.105 15.6533 152.719 15.9 153.519 15.9C154.319 15.9 154.925 15.6533 155.339 15.16C155.765 14.6667 155.979 13.9533 155.979 13.02V4.86H159.399V13.02C159.399 14.3533 159.139 15.48 158.619 16.4C158.099 17.3067 157.385 17.9933 156.479 18.46C155.585 18.9133 154.572 19.14 153.439 19.14C152.305 19.14 151.305 18.9133 150.439 18.46C149.572 18.0067 148.892 17.32 148.399 16.4C147.905 15.48 147.659 14.3533 147.659 13.02V4.86H151.059ZM175.244 19H171.824L166.104 10.32V19H162.684V4.86H166.104L171.824 13.62V4.86H175.244V19ZM191.326 11.9C191.326 13.2867 191.026 14.52 190.426 15.6C189.839 16.6667 188.986 17.5 187.866 18.1C186.759 18.7 185.452 19 183.946 19H178.606V4.86H183.946C185.466 4.86 186.779 5.15333 187.886 5.74C188.992 6.32667 189.839 7.15333 190.426 8.22C191.026 9.28667 191.326 10.5133 191.326 11.9ZM183.646 15.94C184.979 15.94 186.012 15.5867 186.746 14.88C187.492 14.1733 187.866 13.18 187.866 11.9C187.866 10.62 187.492 9.62667 186.746 8.92C186.012 8.21333 184.979 7.86 183.646 7.86H182.026V15.94H183.646Z" fill="#CACACA"/>
<path d="M13.9 9.9C13.9 11.2867 13.6 12.52 13 13.6C12.4133 14.6667 11.56 15.5 10.44 16.1C9.33333 16.7 8.02667 17 6.52 17H1.18V2.86H6.52C8.04 2.86 9.35333 3.15333 10.46 3.74C11.5667 4.32667 12.4133 5.15333 13 6.22C13.6 7.28667 13.9 8.51333 13.9 9.9ZM6.22 13.94C7.55333 13.94 8.58667 13.5867 9.32 12.88C10.0667 12.1733 10.44 11.18 10.44 9.9C10.44 8.62 10.0667 7.62667 9.32 6.92C8.58667 6.21333 7.55333 5.86 6.22 5.86H4.6V13.94H6.22ZM25.608 14.42H20.308L19.428 17H15.828L21.008 2.96H24.948L30.128 17H26.488L25.608 14.42ZM24.728 11.82L22.968 6.62L21.188 11.82H24.728ZM42.6173 2.86V5.58H38.7773V17H35.3373V5.58H31.5373V2.86H42.6173ZM53.8189 14.42H48.5189L47.6389 17H44.0389L49.2189 2.96H53.1589L58.3389 17H54.6989L53.8189 14.42ZM52.9389 11.82L51.1789 6.62L49.3989 11.82H52.9389ZM125.201 2.86V5.58H119.401V8.68H123.881V11.28H119.401V17H115.981V2.86H125.201ZM134.677 2.64C136.011 2.64 137.217 2.95333 138.297 3.58C139.391 4.19333 140.251 5.05333 140.877 6.16C141.504 7.25333 141.817 8.49333 141.817 9.88C141.817 11.2667 141.497 12.5133 140.857 13.62C140.231 14.7267 139.371 15.5933 138.277 16.22C137.197 16.8333 135.997 17.14 134.677 17.14C133.357 17.14 132.151 16.8333 131.057 16.22C129.977 15.5933 129.117 14.7267 128.477 13.62C127.851 12.5133 127.537 11.2667 127.537 9.88C127.537 8.49333 127.851 7.25333 128.477 6.16C129.117 5.05333 129.977 4.19333 131.057 3.58C132.151 2.95333 133.357 2.64 134.677 2.64ZM134.677 5.82C133.557 5.82 132.664 6.18667 131.997 6.92C131.344 7.64 131.017 8.62667 131.017 9.88C131.017 11.12 131.344 12.1067 131.997 12.84C132.664 13.5733 133.557 13.94 134.677 13.94C135.784 13.94 136.671 13.5733 137.337 12.84C138.004 12.1067 138.337 11.12 138.337 9.88C138.337 8.64 138.004 7.65333 137.337 6.92C136.684 6.18667 135.797 5.82 134.677 5.82ZM148.059 2.86V11.02C148.059 11.9533 148.265 12.6667 148.679 13.16C149.105 13.6533 149.719 13.9 150.519 13.9C151.319 13.9 151.925 13.6533 152.339 13.16C152.765 12.6667 152.979 11.9533 152.979 11.02V2.86H156.399V11.02C156.399 12.3533 156.139 13.48 155.619 14.4C155.099 15.3067 154.385 15.9933 153.479 16.46C152.585 16.9133 151.572 17.14 150.439 17.14C149.305 17.14 148.305 16.9133 147.439 16.46C146.572 16.0067 145.892 15.32 145.399 14.4C144.905 13.48 144.659 12.3533 144.659 11.02V2.86H148.059ZM172.244 17H168.824L163.104 8.32V17H159.684V2.86H163.104L168.824 11.62V2.86H172.244V17ZM188.326 9.9C188.326 11.2867 188.026 12.52 187.426 13.6C186.839 14.6667 185.986 15.5 184.866 16.1C183.759 16.7 182.452 17 180.946 17H175.606V2.86H180.946C182.466 2.86 183.779 3.15333 184.886 3.74C185.992 4.32667 186.839 5.15333 187.426 6.22C188.026 7.28667 188.326 8.51333 188.326 9.9ZM180.646 13.94C181.979 13.94 183.012 13.5867 183.746 12.88C184.492 12.1733 184.866 11.18 184.866 9.9C184.866 8.62 184.492 7.62667 183.746 6.92C183.012 6.21333 181.979 5.86 180.646 5.86H179.026V13.94H180.646Z" fill="#5EAAA8"/>
<path d="M78.2322 17H74.8122L69.0922 8.32V17H65.6722V2.86H69.0922L74.8122 11.62V2.86H78.2322V17ZM88.3141 2.64C89.6474 2.64 90.8541 2.95333 91.9341 3.58C93.0274 4.19333 93.8874 5.05333 94.5141 6.16C95.1407 7.25333 95.4541 8.49333 95.4541 9.88C95.4541 11.2667 95.1341 12.5133 94.4941 13.62C93.8674 14.7267 93.0074 15.5933 91.9141 16.22C90.8341 16.8333 89.6341 17.14 88.3141 17.14C86.9941 17.14 85.7874 16.8333 84.6941 16.22C83.6141 15.5933 82.7541 14.7267 82.1141 13.62C81.4874 12.5133 81.1741 11.2667 81.1741 9.88C81.1741 8.49333 81.4874 7.25333 82.1141 6.16C82.7541 5.05333 83.6141 4.19333 84.6941 3.58C85.7874 2.95333 86.9941 2.64 88.3141 2.64ZM88.3141 5.82C87.1941 5.82 86.3007 6.18667 85.6341 6.92C84.9807 7.64 84.6541 8.62667 84.6541 9.88C84.6541 11.12 84.9807 12.1067 85.6341 12.84C86.3007 13.5733 87.1941 13.94 88.3141 13.94C89.4207 13.94 90.3074 13.5733 90.9741 12.84C91.6407 12.1067 91.9741 11.12 91.9741 9.88C91.9741 8.64 91.6407 7.65333 90.9741 6.92C90.3207 6.18667 89.4341 5.82 88.3141 5.82ZM108.535 2.86V5.58H104.695V17H101.255V5.58H97.4553V2.86H108.535Z" fill="#2F2F2F"/>
</svg>

<svg width="193" height="22" fill="none" xmlns="http://www.w3.org/2000/svg"><path d="M16.9 11.9c0 1.387-.3 2.62-.9 3.7-.587 1.067-1.44 1.9-2.56 2.5-1.107.6-2.413.9-3.92.9H4.18V4.86h5.34c1.52 0 2.833.293 3.94.88 1.107.587 1.953 1.413 2.54 2.48.6 1.067.9 2.293.9 3.68zm-7.68 4.04c1.333 0 2.367-.353 3.1-1.06.747-.707 1.12-1.7 1.12-2.98s-.373-2.273-1.12-2.98c-.733-.707-1.767-1.06-3.1-1.06H7.6v8.08h1.62zm19.388.48h-5.3l-.88 2.58h-3.6l5.18-14.04h3.94L33.128 19h-3.64l-.88-2.58zm-.88-2.6l-1.76-5.2-1.78 5.2h3.54zm17.89-8.96v2.72h-3.84V19h-3.44V7.58h-3.8V4.86h11.08zm11.2 11.56h-5.3l-.88 2.58h-3.6l5.18-14.04h3.94L61.339 19h-3.64l-.88-2.58zm-.88-2.6l-1.76-5.2-1.78 5.2h3.54zM81.233 19h-3.42l-5.72-8.68V19h-3.42V4.86h3.42l5.72 8.76V4.86h3.42V19zM91.314 4.64c1.333 0 2.54.313 3.62.94a6.665 6.665 0 012.58 2.58c.627 1.093.94 2.333.94 3.72s-.32 2.633-.96 3.74a6.807 6.807 0 01-2.58 2.6c-1.08.613-2.28.92-3.6.92-1.32 0-2.527-.307-3.62-.92a6.997 6.997 0 01-2.58-2.6c-.627-1.107-.94-2.353-.94-3.74s.313-2.627.94-3.72a6.847 6.847 0 012.58-2.58c1.093-.627 2.3-.94 3.62-.94zm0 3.18c-1.12 0-2.013.367-2.68 1.1-.653.72-.98 1.707-.98 2.96 0 1.24.327 2.227.98 2.96.667.733 1.56 1.1 2.68 1.1 1.107 0 1.993-.367 2.66-1.1.667-.733 1-1.72 1-2.96s-.333-2.227-1-2.96c-.653-.733-1.54-1.1-2.66-1.1zm20.221-2.96v2.72h-3.84V19h-3.44V7.58h-3.8V4.86h11.08zm16.666 0v2.72h-5.8v3.1h4.48v2.6h-4.48V19h-3.42V4.86h9.22zm9.476-.22c1.334 0 2.54.313 3.62.94a6.655 6.655 0 012.58 2.58c.627 1.093.94 2.333.94 3.72s-.32 2.633-.96 3.74a6.797 6.797 0 01-2.58 2.6c-1.08.613-2.28.92-3.6.92-1.32 0-2.526-.307-3.62-.92a6.997 6.997 0 01-2.58-2.6c-.626-1.107-.94-2.353-.94-3.74s.314-2.627.94-3.72a6.847 6.847 0 012.58-2.58c1.094-.627 2.3-.94 3.62-.94zm0 3.18c-1.12 0-2.013.367-2.68 1.1-.653.72-.98 1.707-.98 2.96 0 1.24.327 2.227.98 2.96.667.733 1.56 1.1 2.68 1.1 1.107 0 1.994-.367 2.66-1.1.667-.733 1-1.72 1-2.96s-.333-2.227-1-2.96c-.653-.733-1.54-1.1-2.66-1.1zm13.382-2.96v8.16c0 .933.206 1.647.62 2.14.426.493 1.04.74 1.84.74s1.406-.247 1.82-.74c.426-.493.64-1.207.64-2.14V4.86h3.42v8.16c0 1.333-.26 2.46-.78 3.38a5.14 5.14 0 01-2.14 2.06c-.894.453-1.907.68-3.04.68-1.134 0-2.134-.227-3-.68-.867-.453-1.547-1.14-2.04-2.06-.494-.92-.74-2.047-.74-3.38V4.86h3.4zM175.244 19h-3.42l-5.72-8.68V19h-3.42V4.86h3.42l5.72 8.76V4.86h3.42V19zm16.082-7.1c0 1.387-.3 2.62-.9 3.7-.587 1.067-1.44 1.9-2.56 2.5-1.107.6-2.414.9-3.92.9h-5.34V4.86h5.34c1.52 0 2.833.293 3.94.88 1.106.587 1.953 1.413 2.54 2.48.6 1.067.9 2.293.9 3.68zm-7.68 4.04c1.333 0 2.366-.353 3.1-1.06.746-.707 1.12-1.7 1.12-2.98s-.374-2.273-1.12-2.98c-.734-.707-1.767-1.06-3.1-1.06h-1.62v8.08h1.62z" fill="#CACACA"/><path d="M13.9 9.9c0 1.387-.3 2.62-.9 3.7-.587 1.067-1.44 1.9-2.56 2.5-1.107.6-2.413.9-3.92.9H1.18V2.86h5.34c1.52 0 2.833.293 3.94.88 1.107.587 1.953 1.413 2.54 2.48.6 1.067.9 2.293.9 3.68zm-7.68 4.04c1.333 0 2.367-.353 3.1-1.06.747-.707 1.12-1.7 1.12-2.98s-.373-2.273-1.12-2.98c-.733-.707-1.767-1.06-3.1-1.06H4.6v8.08h1.62zm19.388.48h-5.3l-.88 2.58h-3.6l5.18-14.04h3.94L30.128 17h-3.64l-.88-2.58zm-.88-2.6l-1.76-5.2-1.78 5.2h3.54zm17.89-8.96v2.72h-3.84V17h-3.44V5.58h-3.8V2.86h11.08zm11.2 11.56h-5.3l-.88 2.58h-3.6l5.18-14.04h3.94L58.339 17h-3.64l-.88-2.58zm-.88-2.6l-1.76-5.2-1.78 5.2h3.54zm72.263-8.96v2.72h-5.8v3.1h4.48v2.6h-4.48V17h-3.42V2.86h9.22zm9.476-.22c1.334 0 2.54.313 3.62.94a6.655 6.655 0 012.58 2.58c.627 1.093.94 2.333.94 3.72s-.32 2.633-.96 3.74a6.797 6.797 0 01-2.58 2.6c-1.08.613-2.28.92-3.6.92-1.32 0-2.526-.307-3.62-.92a6.997 6.997 0 01-2.58-2.6c-.626-1.107-.94-2.353-.94-3.74s.314-2.627.94-3.72a6.847 6.847 0 012.58-2.58c1.094-.627 2.3-.94 3.62-.94zm0 3.18c-1.12 0-2.013.367-2.68 1.1-.653.72-.98 1.707-.98 2.96 0 1.24.327 2.227.98 2.96.667.733 1.56 1.1 2.68 1.1 1.107 0 1.994-.367 2.66-1.1.667-.733 1-1.72 1-2.96s-.333-2.227-1-2.96c-.653-.733-1.54-1.1-2.66-1.1zm13.382-2.96v8.16c0 .933.206 1.647.62 2.14.426.493 1.04.74 1.84.74s1.406-.247 1.82-.74c.426-.493.64-1.207.64-2.14V2.86h3.42v8.16c0 1.333-.26 2.46-.78 3.38a5.14 5.14 0 01-2.14 2.06c-.894.453-1.907.68-3.04.68-1.134 0-2.134-.227-3-.68-.867-.453-1.547-1.14-2.04-2.06-.494-.92-.74-2.047-.74-3.38V2.86h3.4zM172.244 17h-3.42l-5.72-8.68V17h-3.42V2.86h3.42l5.72 8.76V2.86h3.42V17zm16.082-7.1c0 1.387-.3 2.62-.9 3.7-.587 1.067-1.44 1.9-2.56 2.5-1.107.6-2.414.9-3.92.9h-5.34V2.86h5.34c1.52 0 2.833.293 3.94.88 1.106.587 1.953 1.413 2.54 2.48.6 1.067.9 2.293.9 3.68zm-7.68 4.04c1.333 0 2.366-.353 3.1-1.06.746-.707 1.12-1.7 1.12-2.98s-.374-2.273-1.12-2.98c-.734-.707-1.767-1.06-3.1-1.06h-1.62v8.08h1.62z" fill="#5EAAA8"/><path d="M78.232 17h-3.42l-5.72-8.68V17h-3.42V2.86h3.42l5.72 8.76V2.86h3.42V17zM88.314 2.64c1.333 0 2.54.313 3.62.94a6.665 6.665 0 012.58 2.58c.627 1.093.94 2.333.94 3.72s-.32 2.633-.96 3.74a6.807 6.807 0 01-2.58 2.6c-1.08.613-2.28.92-3.6.92-1.32 0-2.527-.307-3.62-.92a6.997 6.997 0 01-2.58-2.6c-.627-1.107-.94-2.353-.94-3.74s.313-2.627.94-3.72a6.847 6.847 0 012.58-2.58c1.093-.627 2.3-.94 3.62-.94zm0 3.18c-1.12 0-2.013.367-2.68 1.1-.653.72-.98 1.707-.98 2.96 0 1.24.327 2.227.98 2.96.667.733 1.56 1.1 2.68 1.1 1.107 0 1.993-.367 2.66-1.1.667-.733 1-1.72 1-2.96s-.333-2.227-1-2.96c-.653-.733-1.54-1.1-2.66-1.1zm20.221-2.96v2.72h-3.84V17h-3.44V5.58h-3.8V2.86h11.08z" fill="#2F2F2F"/></svg>
